X:155
T:Kettle Benders
A:Wyresdale, Lancashire
B:E and J Winder, 1835-41
L:1/8
M:C|
N:last 2 words indistinct. That's my best guess
O:England
Z:Richard Robinson 
%%RRN:the written title is actually "Thomas Houghton's way of playing Kettle Benders"
%%TUNEURL: http://www.leeds.ac.uk/music/Info/RRTuneBk/gettune/00000e9e.html
%%ID:00000e9e
K:G
B2 AG G2G2 | A2G2 ABc2 :: \
Bc dd d2d2 | edcB ABc2 | ! c2cc c2ce | dcBA GAB2 | \
G2 GG F2FF | E2E2 D2D2 |   c2cc B2ce | dcBA GFG2 :|
